64x64/apps/distributor-logo-linux-mint.svg

<svg xmlns="http://www.w3.org/2000/svg" width="64" height="64"><rect style="opacity:.2" width="56" height="56" x="4" y="5" rx="3" ry="3"/><rect style="fill:#7ec242" width="56" height="56" x="4" y="4" rx="3" ry="3"/><path style="opacity:.2" d="M22 20v20c0 4 3 6 6 6h14c3.324 0 5-1.676 5-5V28c0-2.499-2.568-4-5-4-1.473 0-2.577.657-3.531 1.635C37.516 24.657 36.473 24 35 24c-2.636 0-5 1.537-5 4v10h3v-9c0-1.243.757-2 2-2 1.243 0 2 .757 2 2v9h3v-9c0-1.243.757-2 2-2 1.243 0 2 .757 2 2v12c0 1.662-.338 2-2 2H28c-2 0-3-2-3-4V20z"/><path style="fill:#f4f4f7" d="M22 19v20c0 4 3 6 6 6h14c3.324 0 5-1.676 5-5V27c0-2.499-2.568-4-5-4-1.473 0-2.577.657-3.531 1.635C37.516 23.657 36.473 23 35 23c-2.636 0-5 1.537-5 4v10h3v-9c0-1.243.757-2 2-2 1.243 0 2 .757 2 2v9h3v-9c0-1.243.757-2 2-2 1.243 0 2 .757 2 2v12c0 1.662-.338 2-2 2H28c-2 0-3-2-3-4V19z"/><path style="opacity:.2" d="M9 14v12h6v12c0 8 5 15 13 15h26V28c0-8.226-6.774-13.96-15-14zm3 3h27c6.615 0 12 4.385 12 11v22H28c-6 0-10-6-10-12V27c0-2.965-1.152-4-4-4h-2z"/><path style="fill:#f4f4f7" d="M9 13v12h6v12c0 8 5 15 13 15h26V27c0-8.226-6.774-13.96-15-14zm3 3h27c6.615 0 12 4.385 12 11v22H28c-6 0-10-6-10-12V26c0-2.965-1.152-4-4-4h-2z"/><path style="fill:#f4f4f7;opacity:.2" d="M7 4C5.338 4 4 5.338 4 7v1c0-1.662 1.338-3 3-3h50c1.662 0 3 1.338 3 3V7c0-1.662-1.338-3-3-3H7z"/></svg>

<svg xmlns="http://www.w3.org/2000/svg" width="64" height="64" version="1.1">
 <rect style="opacity:0.2" width="56" height="56" x="4" y="5" rx="3" ry="3"/>
 <rect style="fill:#7ec242" width="56" height="56" x="4" y="4" rx="3" ry="3"/>
 <path style="opacity:0.2" d="M 22,20 V 40 C 22,44 25,46 28,46 H 42 C 45.324,46 47,44.324 47,41 V 28 C 47,25.501 44.432,24 42,24 40.527,24 39.423,24.657 38.469,25.635 37.516,24.657 36.473,24 35,24 32.364,24 30,25.537 30,28 V 38 H 33 V 29 C 33,27.757 33.757,27 35,27 36.243,27 37,27.757 37,29 V 38 H 40 V 29 C 40,27.757 40.757,27 42,27 43.243,27 44,27.757 44,29 V 41 C 44,42.662 43.662,43 42,43 H 28 C 26,43 25,41 25,39 V 20 Z"/>
 <path style="fill:#f4f4f7" d="M 22,19 V 39 C 22,43 25,45 28,45 H 42 C 45.324,45 47,43.324 47,40 V 27 C 47,24.501 44.432,23 42,23 40.527,23 39.423,23.657 38.469,24.635 37.516,23.657 36.473,23 35,23 32.364,23 30,24.537 30,27 V 37 H 33 V 28 C 33,26.757 33.757,26 35,26 36.243,26 37,26.757 37,28 V 37 H 40 V 28 C 40,26.757 40.757,26 42,26 43.243,26 44,26.757 44,28 V 40 C 44,41.662 43.662,42 42,42 H 28 C 26,42 25,40 25,38 V 19 Z"/>
 <path style="opacity:0.2" d="M 9,14 V 26 H 15 V 38 C 15,46 20,53 28,53 H 54 V 28 C 54,19.774 47.226,14.04 39,14 Z M 12,17 H 39 C 45.615,17 51,21.385 51,28 V 50 H 28 C 22,50 18,44 18,38 V 27 C 18,24.035 16.848,23 14,23 H 12 Z"/>
 <path style="fill:#f4f4f7" d="M 9,13 V 25 H 15 V 37 C 15,45 20,52 28,52 H 54 V 27 C 54,18.774 47.226,13.04 39,13 Z M 12,16 H 39 C 45.615,16 51,20.385 51,27 V 49 H 28 C 22,49 18,43 18,37 V 26 C 18,23.035 16.848,22 14,22 H 12 Z"/>
 <path style="fill:#f4f4f7;opacity:0.2" d="M 7 4 C 5.338 4 4 5.338 4 7 L 4 8 C 4 6.338 5.338 5 7 5 L 57 5 C 58.662 5 60 6.338 60 8 L 60 7 C 60 5.338 58.662 4 57 4 L 7 4 z"/>
</svg>
